ix/code_bold.svg

<svg viewBox="0 0 24 24" fill="none" xmlns="http://www.w3.org/2000/svg" height="1em" width="1em">
  <path d="M21 10H3c-.55 0-1 .45-1 1v5.19c0 .2.01.4.03.6.2 3.08 2.1 4.98 5.18 5.18.2.02.4.03.6.03h8.38c.2 0 .4-.01.6-.03 3.08-.2 4.98-2.1 5.18-5.18.02-.2.03-.4.03-.6V11c0-.55-.45-1-1-1ZM8 16.15c.34.5.8.91 1.33 1.18.38.18.53.63.34 1.01-.13.26-.4.41-.67.41-.11 0-.23-.03-.33-.08-.78-.38-1.44-.97-1.91-1.68-.4-.6-.4-1.38 0-1.98.47-.71 1.13-1.3 1.91-1.68.37-.19.82-.04 1 .33.19.38.04.83-.34 1.01-.53.27-.99.68-1.33 1.18-.06.09-.06.21 0 .3Zm9.45.84c-.48.71-1.14 1.3-1.91 1.68a.742.742 0 0 1-1-.33.745.745 0 0 1 .33-1.01c.54-.27 1-.68 1.33-1.18a.24.24 0 0 0 0-.3c-.33-.5-.79-.91-1.33-1.18a.745.745 0 0 1-.33-1.01c.18-.37.63-.52 1-.33.77.38 1.43.97 1.91 1.68.4.6.4 1.38 0 1.98ZM22 7.81V8c0 .55-.45 1-1 1L3 9.01c-.55 0-1-.45-1-1v-.2c0-.2.01-.4.03-.6.2-3.08 2.1-4.98 5.18-5.18.2-.02.4-.03.6-.03h8.38c.2 0 .4.01.6.03 3.08.2 4.98 2.1 5.18 5.18.02.2.03.4.03.6Z" fill="#292D32"/>
</svg>

<svg viewBox="0 0 24 24" fill="none" xmlns="http://www.w3.org/2000/svg" height="1em" width="1em">
  <path d="M21 10H3C2.45 10 2 10.45 2 11V16.19C2 16.39 2.01 16.59 2.03 16.79C2.23 19.87 4.13 21.77 7.21 21.97C7.41 21.99 7.61 22 7.81 22H16.19C16.39 22 16.59 21.99 16.79 21.97C19.87 21.77 21.77 19.87 21.97 16.79C21.99 16.59 22 16.39 22 16.19V11C22 10.45 21.55 10 21 10ZM8 16.15C8.34 16.65 8.8 17.06 9.33 17.33C9.71 17.51 9.86 17.96 9.67 18.34C9.54 18.6 9.27 18.75 9 18.75C8.89 18.75 8.77 18.72 8.67 18.67C7.89 18.29 7.23 17.7 6.76 16.99C6.36 16.39 6.36 15.61 6.76 15.01C7.23 14.3 7.89 13.71 8.67 13.33C9.04 13.14 9.49 13.29 9.67 13.66C9.86 14.04 9.71 14.49 9.33 14.67C8.8 14.94 8.34 15.35 8 15.85C7.94 15.94 7.94 16.06 8 16.15ZM17.45 16.99C16.97 17.7 16.31 18.29 15.54 18.67C15.43 18.72 15.32 18.75 15.21 18.75C14.93 18.75 14.67 18.6 14.54 18.34C14.35 17.96 14.5 17.51 14.87 17.33C15.41 17.06 15.87 16.65 16.2 16.15C16.27 16.06 16.27 15.94 16.2 15.85C15.87 15.35 15.41 14.94 14.87 14.67C14.5 14.49 14.35 14.04 14.54 13.66C14.72 13.29 15.17 13.14 15.54 13.33C16.31 13.71 16.97 14.3 17.45 15.01C17.85 15.61 17.85 16.39 17.45 16.99Z" fill="#292D32"/>
  <path d="M22 7.81V8C22 8.55 21.55 9 21 9L3 9.01C2.45 9.01 2 8.56 2 8.01V7.81C2 7.61 2.01 7.41 2.03 7.21C2.23 4.13 4.13 2.23 7.21 2.03C7.41 2.01 7.61 2 7.81 2H16.19C16.39 2 16.59 2.01 16.79 2.03C19.87 2.23 21.77 4.13 21.97 7.21C21.99 7.41 22 7.61 22 7.81Z" fill="#292D32"/>
</svg>
